dist/images/icon-calendar.svg

<svg width="40" height="40" viewBox="0 0 40 40" fill="none" xmlns="http://www.w3.org/2000/svg">
<path d="M28.3333 1.66667C28.3333 0.746667 27.5883 0 26.6667 0C25.745 0 25 0.746667 25 1.66667V5C25 5.92 25.745 6.66667 26.6667 6.66667C27.5883 6.66667 28.3333 5.92 28.3333 5V1.66667ZM8.33333 5C8.33333 5.92 7.58833 6.66667 6.66667 6.66667C5.745 6.66667 5 5.92 5 5V1.66667C5 0.746667 5.745 0 6.66667 0C7.58833 0 8.33333 0.746667 8.33333 1.66667V5ZM30 13.3333V30H3.33333V13.3333H30ZM33.3333 3.33333H30V5C30 6.83833 28.505 8.33333 26.6667 8.33333C24.8283 8.33333 23.3333 6.83833 23.3333 5V3.33333H10V5C10 6.83833 8.505 8.33333 6.66667 8.33333C4.82833 8.33333 3.33333 6.83833 3.33333 5V3.33333H0V33.3333H33.3333V3.33333ZM13.9233 26.6667C11.7267 26.6667 10.27 25.3983 10.31 22.9917H12.385C12.4217 24.0583 12.8517 24.8367 13.8967 24.8367C14.5883 24.8367 15.2833 24.425 15.2833 23.505C15.2833 22.3383 14.475 22.2533 13.1167 22.2533V20.625C14.0717 20.7083 15.11 20.5717 15.11 19.6117C15.11 18.8533 14.495 18.5067 13.925 18.5067C12.9667 18.5067 12.6033 19.21 12.6217 20.1783H10.5283C10.615 17.8433 12.0317 16.6667 13.91 16.6667C15.5233 16.6667 17.1917 17.6883 17.1917 19.4C17.1917 20.2867 16.8017 20.975 16.1283 21.3117C17.0083 21.65 17.54 22.4467 17.54 23.4667C17.5383 25.4683 15.885 26.6667 13.9233 26.6667ZM23.0233 26.6667H20.8467V20.42H18.4917V18.7083C19.9867 18.7483 21.0333 18.32 21.2533 16.8533H23.0233V26.6667ZM40 8.33333V40H3.33333V36.6667H36.6667V8.33333H40Z" fill="white"/>
</svg>

<svg width="40" height="40" fill="none" xmlns="http://www.w3.org/2000/svg"><path d="M28.333 1.667a1.666 1.666 0 1 0-3.333 0V5a1.666 1.666 0 1 0 3.333 0V1.667ZM8.333 5A1.666 1.666 0 1 1 5 5V1.667a1.666 1.666 0 1 1 3.333 0V5ZM30 13.333V30H3.333V13.333H30Zm3.333-10H30V5a3.337 3.337 0 0 1-3.333 3.333A3.337 3.337 0 0 1 23.333 5V3.333H10V5a3.337 3.337 0 0 1-3.333 3.333A3.337 3.337 0 0 1 3.333 5V3.333H0v30h33.333v-30Zm-19.41 23.334c-2.196 0-3.653-1.269-3.613-3.675h2.075c.037 1.066.467 1.845 1.512 1.845.691 0 1.386-.412 1.386-1.332 0-1.167-.808-1.252-2.166-1.252v-1.628c.955.083 1.993-.053 1.993-1.013 0-.759-.615-1.105-1.185-1.105-.958 0-1.322.703-1.303 1.671h-2.094c.087-2.335 1.504-3.511 3.382-3.511 1.613 0 3.282 1.021 3.282 2.733 0 .887-.39 1.575-1.064 1.912.88.338 1.412 1.135 1.412 2.155-.002 2.001-1.655 3.2-3.617 3.2Zm9.1 0h-2.176V20.42h-2.355v-1.712c1.495.04 2.541-.388 2.761-1.855h1.77v9.814ZM40 8.333V40H3.333v-3.333h33.334V8.333H40Z" fill="#fff"/></svg>
